X: 40638
T: Toormore, The
R: slide
M: 12/8
K: Eminor
|:B,2E EDE|G2A B2B|ABA ABA|F2A D3|
B,2E EDE|G2A B2A|GFE FED|1 E3 E2D:|2 E3 E2A||
|:B2B ABA|G2G F2F|E2E EFE|E2D B,2A,|
B,2E EDE|G2A B2A|GFE FED|1 E3 E2A:|2 E3 E2D||

